src/assets/img/icons/category-person.svg

<svg width="24" height="24" fill="none" xmlns="http://www.w3.org/2000/svg">
  <path d="M6.3333 16.7766a.7499.7499 0 00.3232 1.0101.75.75 0 001.0102-.3233l-1.3334-.6868zm10 .6868a.7498.7498 0 001.0101.3233.7498.7498 0 00.3233-1.0101l-1.3334.6868zM14.25 9c0 1.2426-1.0074 2.25-2.25 2.25v1.5c2.0711 0 3.75-1.6789 3.75-3.75h-1.5zM12 11.25c-1.2426 0-2.25-1.0074-2.25-2.25h-1.5c0 2.0711 1.679 3.75 3.75 3.75v-1.5zM9.75 9c0-1.2426 1.0074-2.25 2.25-2.25v-1.5C9.929 5.25 8.25 6.929 8.25 9h1.5zM12 6.75c1.2426 0 2.25 1.0074 2.25 2.25h1.5c0-2.071-1.6789-3.75-3.75-3.75v1.5zM7.6667 17.4634c1.8637-3.6179 6.8029-3.6179 8.6666 0l1.3334-.6868c-2.422-4.7021-8.9114-4.7021-11.3334 0l1.3334.6868zM20.25 12c0 4.5563-3.6937 8.25-8.25 8.25v1.5c5.3848 0 9.75-4.3652 9.75-9.75h-1.5zM12 20.25c-4.5564 0-8.25-3.6937-8.25-8.25h-1.5c0 5.3848 4.3652 9.75 9.75 9.75v-1.5zM3.75 12c0-4.5564 3.6936-8.25 8.25-8.25v-1.5c-5.3848 0-9.75 4.3652-9.75 9.75h1.5zM12 3.75c4.5563 0 8.25 3.6936 8.25 8.25h1.5c0-5.3848-4.3652-9.75-9.75-9.75v1.5z" fill="#FCFDFC"/>
</svg>

<svg xmlns="http://www.w3.org/2000/svg" width="24" height="24" fill="none" viewBox="0 0 24 24" xmlns:v="https://vecta.io/nano"><path d="M6.333 16.777a.75.75 0 0 0 1.333.687l-1.333-.687zm10 .687a.75.75 0 1 0 1.333-.687l-1.333.687zM14.25 9A2.25 2.25 0 0 1 12 11.25v1.5A3.75 3.75 0 0 0 15.75 9h-1.5zM12 11.25A2.25 2.25 0 0 1 9.75 9h-1.5A3.75 3.75 0 0 0 12 12.75v-1.5zM9.75 9A2.25 2.25 0 0 1 12 6.75v-1.5A3.75 3.75 0 0 0 8.25 9h1.5zM12 6.75A2.25 2.25 0 0 1 14.25 9h1.5A3.75 3.75 0 0 0 12 5.25v1.5zM7.667 17.463c1.864-3.618 6.803-3.618 8.667 0l1.333-.687c-2.422-4.702-8.911-4.702-11.333 0l1.333.687zM20.25 12A8.25 8.25 0 0 1 12 20.25v1.5A9.75 9.75 0 0 0 21.75 12h-1.5zM12 20.25A8.25 8.25 0 0 1 3.75 12h-1.5c0 5.385 4.365 9.75 9.75 9.75v-1.5zM3.75 12A8.25 8.25 0 0 1 12 3.75v-1.5c-5.385 0-9.75 4.365-9.75 9.75h1.5zM12 3.75A8.25 8.25 0 0 1 20.25 12h1.5c0-5.385-4.365-9.75-9.75-9.75v1.5z" fill="#2d3436"/></svg>
